svg/laptop.svg

<svg width="24" height="24" viewBox="0 0 24 24" fill="none" xmlns="http://www.w3.org/2000/svg">
<path d="M2 5C2 3.89543 2.89543 3 4 3H20C21.1046 3 22 3.89543 22 5V16C22 17.1046 21.1046 18 20 18H4C2.89543 18 2 17.1046 2 16V5ZM20 5H4V16H20V5Z" fill="#0D0D0D"/>
<path d="M22 20C22 20.5523 21.5523 21 21 21H3C2.44772 21 2 20.5523 2 20C2 19.4477 2.44772 19 3 19L21 19C21.5523 19 22 19.4477 22 20Z" fill="#0D0D0D"/>
</svg>

<svg width="24" height="24" fill="none" xmlns="http://www.w3.org/2000/svg"><path d="M2 5a2 2 0 012-2h16a2 2 0 012 2v11a2 2 0 01-2 2H4a2 2 0 01-2-2V5zm18 0H4v11h16V5zM22 20a1 1 0 01-1 1H3a1 1 0 110-2h18a1 1 0 011 1z" fill="#0D0D0D"/></svg>
